X: 649
P: Longways for as many as will
M: C|
L: 1/8
K: G
V: 1
|:\
|:\
d2d2 d2ef | gfgd e4 | d2cB cBAG | ABcE F2ED |\
V: 2 clef=bass middle=d
|:\
g2g2 g2fe | dcBA G2z2 | a2a2 a2GA | B2cd edef |\
g2g2 g2fe | dcBA G2z2 | b2a2 g2d2 | g2z2 G4 :|
|:\
d'2d'2 d'2c'2 | b2g2 c'2c2 | B2G2 c2e2 | d4 z2=f2 |\
e2c2 B2G2 | c2A2 B2c2 | Bgfe dcBA | G2d2 G4 :|

